X: 39146
T: Sweetness Of Mary, The
R: strathspey
M: 4/4
K: Gmajor
(3EAB|c2 (3cBA F2 (3FAB|c>e d<f e2 (3efg|a>gf>e e>dc>d|e<a c>A B2 A>B|
c2 (3cBA F2 (3FAB|c>e d<f e2 (3efg|a>gf>e e>dc>d|e<a c>B A2:|

